app/dist/common/images/balfour-beatty.svg

<svg height="18" viewBox="0 0 18 18" width="18" xmlns="http://www.w3.org/2000/svg"><path d="m0 0h18v18h-18z" fill="#0268a6"/><path d="m4 13v-8h2.14c1.46 0 2.36.44 2.36 2 0 .77-.17 1.35-1 1.5 1.03.13 1.5 1.21 1.5 2.13 0 1.5-.93 2.37-2.48 2.37zm1.47-1h.7c.75 0 1.33-.69 1.33-1.37 0-.72-.5-1.63-1.31-1.63h-.69zm.03-4h.67c.72 0 .83-.34.83-1 0-.6-.26-1-.87-1h-.63zm3.5 5v-8h2.14c1.46 0 2.36.44 2.36 2 0 .77-.17 1.35-1 1.5 1.03.13 1.5 1.21 1.5 2.13 0 1.5-.93 2.37-2.48 2.37zm1.47-1h.7c.76 0 1.33-.69 1.33-1.37 0-.72-.5-1.63-1.31-1.63h-.69zm.03-4h.67c.72 0 .83-.34.83-1 0-.6-.26-1-.87-1h-.63z" fill="#f0f3fa"/></svg>

<!-- by TradingView --><svg width="18" height="18" viewBox="0 0 18 18" xmlns="http://www.w3.org/2000/svg"><path fill="#0268A6" d="M0 0h18v18H0z"/><path d="M4 13V5h2.14C7.6 5 8.5 5.44 8.5 7c0 .77-.17 1.35-1 1.5C8.53 8.63 9 9.71 9 10.63 9 12.13 8.07 13 6.52 13H4Zm1.47-1h.7c.75 0 1.33-.69 1.33-1.37C7.5 9.91 7 9 6.19 9H5.5l-.03 3Zm.03-4h.67C6.89 8 7 7.66 7 7c0-.6-.26-1-.87-1H5.5v2ZM9 13V5h2.14c1.46 0 2.36.44 2.36 2 0 .77-.17 1.35-1 1.5 1.03.13 1.5 1.21 1.5 2.13 0 1.5-.93 2.37-2.48 2.37H9Zm1.47-1h.7c.76 0 1.33-.69 1.33-1.37C12.5 9.91 12 9 11.19 9h-.69l-.03 3Zm.03-4h.67c.72 0 .83-.34.83-1 0-.6-.26-1-.87-1h-.63v2Z" fill="#F0F3FA"/></svg>
